X:13
T: Ritter und Magd
N: Q0055L
O: Mitteleuropa, Deutschland (BRD) , Hessen - Nassau
R: Ballade, Betrug, Schwangerschaft, Tod, Selbstmord, Herr und Magd
M: 4/4
L: 1/8
K: G
D2 | G2G2G3A | B2B2B2
GB | d2d2e2e2 | d3cB2
GB | d2d2e3d | d2ced2
dc | B2B2d2B2 | A4G2

